images/client3.svg

<svg width="41" height="43" viewBox="0 0 41 43" fill="none" xmlns="http://www.w3.org/2000/svg">
<path d="M6.34541 41.7948C6.36043 41.7952 6.37521 41.7985 6.3889 41.8043C6.40259 41.8102 6.41491 41.8187 6.42515 41.8291L6.63092 42.0448C6.4712 42.2194 6.27378 42.359 6.05219 42.4541C5.79269 42.5579 5.51302 42.6081 5.23168 42.6012C4.9673 42.6064 4.70464 42.5597 4.46003 42.4639C4.23939 42.376 4.04115 42.244 3.87873 42.0767C3.71297 41.9032 3.58529 41.6999 3.5032 41.4787C3.4133 41.2321 3.36892 40.9725 3.37202 40.7115C3.36837 40.4488 3.41635 40.1878 3.51349 39.9419C3.60334 39.7193 3.73888 39.516 3.91217 39.3439C4.08781 39.1751 4.29791 39.0425 4.52948 38.9542C4.78282 38.8606 5.05259 38.814 5.32427 38.8169C5.57664 38.8111 5.82767 38.8536 6.06248 38.9419C6.26619 39.0262 6.45324 39.143 6.61549 39.2875L6.44315 39.5179C6.43125 39.5341 6.41645 39.5482 6.39943 39.5596C6.37909 39.5728 6.35452 39.5789 6.32998 39.5767C6.30328 39.575 6.27755 39.5665 6.25539 39.5522L6.16279 39.4909L6.03418 39.4125C5.97867 39.3834 5.92108 39.358 5.86185 39.3365C5.78556 39.3105 5.70732 39.29 5.62779 39.2753C5.52685 39.2575 5.42433 39.2493 5.3217 39.2508C5.12606 39.2484 4.93191 39.2834 4.75069 39.3537C4.58168 39.4188 4.42912 39.5174 4.30313 39.6429C4.17488 39.7764 4.07604 39.9331 4.01248 40.1037C3.94004 40.2988 3.90434 40.5046 3.90702 40.7115C3.90394 40.9217 3.93963 41.1307 4.01248 41.3291C4.07525 41.4983 4.17225 41.654 4.29799 41.7875C4.4158 41.9119 4.56182 42.0092 4.72497 42.0718C4.89286 42.1381 5.07308 42.1715 5.25483 42.1698C5.35981 42.1714 5.46475 42.1648 5.56863 42.1502C5.73824 42.1305 5.90094 42.0743 6.04447 41.986C6.11647 41.9407 6.18443 41.8899 6.24767 41.834C6.27411 41.81 6.30889 41.7961 6.34541 41.7948Z" fill="#AFB1B8"/>
<path d="M12.2871 40.7108C12.2903 40.9709 12.2432 41.2292 12.1482 41.473C12.0644 41.6941 11.9323 41.8958 11.7608 42.0648C11.5892 42.2338 11.382 42.3662 11.1528 42.4533C10.6492 42.6363 10.0925 42.6363 9.58896 42.4533C9.36125 42.3648 9.15539 42.2321 8.98452 42.0636C8.81305 41.8916 8.68004 41.6882 8.59356 41.4657C8.40827 40.972 8.40827 40.4325 8.59356 39.9388C8.6813 39.7162 8.81414 39.5122 8.98452 39.3384C9.15685 39.1752 9.3626 39.0476 9.58896 38.9635C10.0919 38.7772 10.6499 38.7772 11.1528 38.9635C11.3813 39.0519 11.588 39.1846 11.7598 39.3531C11.9292 39.5235 12.0612 39.7243 12.1482 39.9437C12.2435 40.1892 12.2906 40.4492 12.2871 40.7108ZM11.747 40.7108C11.751 40.5028 11.718 40.2956 11.6492 40.0981C11.5916 39.929 11.4979 39.7729 11.374 39.6399C11.2534 39.5139 11.1049 39.4152 10.9393 39.3507C10.5734 39.2167 10.1684 39.2167 9.80245 39.3507C9.63684 39.4152 9.48836 39.5139 9.36776 39.6399C9.24215 39.7722 9.14747 39.9284 9.08997 40.0981C8.9591 40.4971 8.9591 40.9246 9.08997 41.3235C9.14803 41.4931 9.24265 41.6492 9.36776 41.7818C9.48851 41.907 9.637 42.0049 9.80245 42.0685C10.169 42.1991 10.5728 42.1991 10.9393 42.0685C11.1048 42.0049 11.2533 41.907 11.374 41.7818C11.4974 41.6484 11.591 41.4925 11.6492 41.3235C11.7183 41.1261 11.7513 40.9189 11.747 40.7108Z" fill="#AFB1B8"/>
<path d="M16.3408 41.3535L16.3948 41.4907C16.4154 41.4417 16.4334 41.3976 16.4539 41.3535C16.4736 41.3074 16.4959 41.2624 16.5208 41.2187L17.8352 38.9422C17.8609 38.903 17.884 38.8785 17.9098 38.8712C17.9447 38.861 17.9813 38.8569 18.0178 38.8589H18.4062V42.5615H17.9458V39.8391C17.9458 39.8048 17.9458 39.7656 17.9458 39.7239C17.9433 39.6815 17.9433 39.6389 17.9458 39.5965L16.6237 41.9048C16.6069 41.9394 16.58 41.9686 16.5463 41.989C16.5125 42.0095 16.4733 42.0202 16.4334 42.02H16.3588C16.3187 42.0205 16.2794 42.0099 16.2456 41.9894C16.2118 41.969 16.185 41.9396 16.1684 41.9048L14.8078 39.5818C14.8078 39.6259 14.8078 39.67 14.8078 39.7141C14.8078 39.7582 14.8078 39.7974 14.8078 39.8317V42.5542H14.3628V38.8589H14.7512C14.7877 38.8569 14.8243 38.861 14.8592 38.8712C14.8911 38.8862 14.9165 38.9113 14.9312 38.9422L16.2739 41.2211C16.3003 41.2633 16.3227 41.3075 16.3408 41.3535Z" fill="#AFB1B8"/>
<path d="M21.2871 41.1695V42.5564H20.7727V38.8588H21.9199C22.1364 38.8548 22.3524 38.8821 22.5603 38.9396C22.7268 38.9846 22.8812 39.0631 23.013 39.17C23.1273 39.2701 23.2154 39.3943 23.2703 39.5326C23.331 39.6835 23.3607 39.844 23.3577 40.0056C23.36 40.1677 23.3276 40.3286 23.2625 40.4785C23.2007 40.6203 23.1057 40.7469 22.9847 40.8485C22.8528 40.9598 22.6976 41.0433 22.5295 41.0935C22.3292 41.1545 22.1198 41.1835 21.9096 41.1793L21.2871 41.1695ZM21.2871 40.7725H21.9096C22.0448 40.7742 22.1794 40.7552 22.3083 40.7162C22.4146 40.6821 22.5126 40.6279 22.5964 40.5569C22.6736 40.4891 22.7335 40.4052 22.7713 40.3118C22.8134 40.2131 22.8344 40.1073 22.833 40.0006C22.839 39.8979 22.8214 39.7951 22.7814 39.6994C22.7414 39.6038 22.68 39.5176 22.6015 39.4469C22.405 39.3007 22.1582 39.2299 21.9096 39.2484H21.2871V40.7725Z" fill="#AFB1B8"/>
<path d="M28.201 42.5614H27.7946C27.7538 42.5629 27.7138 42.5508 27.6814 42.5271C27.6522 42.504 27.6293 42.4746 27.6145 42.4413L27.2647 41.5468H25.508L25.1453 42.4413C25.132 42.474 25.1098 42.5028 25.081 42.5246C25.0483 42.5497 25.0072 42.5628 24.9652 42.5614H24.5588L26.1021 38.8584H26.6371L28.201 42.5614ZM25.6546 41.1866H27.1053L26.4931 39.6794C26.4463 39.566 26.4076 39.4497 26.3773 39.3314L26.3182 39.525C26.3002 39.5838 26.2796 39.6377 26.2616 39.6818L25.6546 41.1866Z" fill="#AFB1B8"/>
<path d="M30.4233 38.8756C30.4541 38.8917 30.4805 38.9143 30.5005 38.9418L32.7511 41.7331C32.7511 41.689 32.7511 41.6449 32.7511 41.6032C32.7511 41.5616 32.7511 41.5199 32.7511 41.4807V38.8585H33.2115V42.5614H32.9543C32.9178 42.5625 32.8816 42.5549 32.8489 42.5394C32.8171 42.5217 32.7892 42.4984 32.7666 42.4708L30.5185 39.6819C30.521 39.7243 30.521 39.7669 30.5185 39.8093C30.5185 39.851 30.5185 39.8878 30.5185 39.9221V42.5614H30.0581V38.8585H30.3308C30.3626 38.8576 30.3942 38.8635 30.4233 38.8756Z" fill="#AFB1B8"/>
<path d="M37.0028 41.0887V42.5591H36.4883V41.0887L35.0659 38.8586H35.5263C35.566 38.8564 35.6052 38.8677 35.6369 38.8905C35.6649 38.9142 35.6884 38.9424 35.7064 38.9738L36.5964 40.4123C36.6324 40.4736 36.6632 40.5299 36.689 40.5839C36.7147 40.6378 36.7353 40.6892 36.7533 40.7407L36.8201 40.5814C36.8451 40.5232 36.8743 40.4667 36.9076 40.4123L37.7847 38.964C37.8031 38.9351 37.8256 38.9087 37.8516 38.8856C37.8821 38.8602 37.9217 38.847 37.9622 38.8488H38.4277L37.0028 41.0887Z" fill="#AFB1B8"/>
<path d="M16.0862 32.6443C16.31 32.6712 16.5363 32.6933 16.7652 32.7129C20.2358 31.2337 23.1718 28.8127 25.2062 25.7526C27.2406 22.6924 28.2832 19.1289 28.2036 15.5073L24.3788 11.8633C25.1565 15.7191 24.7927 19.705 23.3282 23.3751C21.8636 27.0452 19.3561 30.2546 16.0862 32.6443Z" fill="#AFB1B8"/>
<path d="M14.7205 32.4748L14.8233 32.4944C18.3176 30.1132 20.9816 26.788 22.471 22.9488C23.9604 19.1097 24.2065 14.9331 23.1777 10.9592L17.7299 5.76904C19.9333 10.0353 20.8203 14.8098 20.2876 19.5374C19.7548 24.265 17.8243 28.7514 14.7205 32.4748Z" fill="#AFB1B8"/>
<path d="M33.1962 19.7861C32.2706 23.7654 30.0228 27.3541 26.7864 30.0196C25.8412 30.8023 24.8217 31.4996 23.741 32.1025C26.3763 31.3646 28.7986 30.0598 30.821 28.289C32.8434 26.5181 34.4119 24.3284 35.4056 21.8887L33.1962 19.7861Z" fill="#AFB1B8"/>
<path d="M32.3292 19.2002L29.1835 16.2031C29.1233 19.6201 28.1037 22.9594 26.2306 25.8739C24.3575 28.7885 21.6993 31.1718 18.5322 32.7764H18.5477C19.2534 32.7761 19.9586 32.736 20.6594 32.6563C23.6192 31.5053 26.2339 29.6742 28.2702 27.3262C30.3064 24.9782 31.7009 22.1865 32.3292 19.2002Z" fill="#AFB1B8"/>
<path d="M15.1757 3.5803L11.4229 0C8.06808 1.23513 5.18278 3.40643 3.14464 6.22973C1.1065 9.05304 0.0104686 12.3968 0 15.8234H0C0.0125737 19.6097 1.3502 23.2838 3.80116 26.2643C6.25213 29.2448 9.67642 31.3614 13.5321 32.2791C16.974 28.2838 18.9892 23.347 19.2847 18.186C19.5803 13.025 18.1409 7.90862 15.1757 3.5803Z" fill="#AFB1B8"/>
<path d="M41 18.6492C40.9864 14.157 39.1073 9.85247 35.7732 6.67598C32.4391 3.49949 27.921 1.70923 23.2059 1.6963C21.0271 1.69415 18.8668 2.0772 16.8347 2.826L39.8117 24.7168C40.5984 22.7817 41.0014 20.7244 41 18.6492Z" fill="#AFB1B8"/>
</svg>

<svg width="41" height="43" fill="none" xmlns="http://www.w3.org/2000/svg"><path d="M6.345 41.795a.115.115 0 01.08.034l.206.216c-.16.174-.357.314-.579.41-.26.103-.539.153-.82.146a2.01 2.01 0 01-.772-.137 1.672 1.672 0 01-.957-.985 2.164 2.164 0 01-.131-.767 2.017 2.017 0 01.141-.77c.09-.223.226-.426.4-.598.175-.169.385-.302.616-.39.254-.093.524-.14.795-.137a1.97 1.97 0 01.738.125c.204.084.391.201.553.346l-.172.23a.175.175 0 01-.044.042.11.11 0 01-.069.017.156.156 0 01-.075-.025l-.092-.061-.129-.078a1.4 1.4 0 00-.406-.138 1.626 1.626 0 00-.306-.024 1.528 1.528 0 00-.571.103 1.292 1.292 0 00-.448.289c-.128.133-.227.29-.29.46-.073.196-.109.402-.106.608-.003.21.033.42.105.618.063.17.16.325.286.459.118.124.264.221.427.284.168.066.348.1.53.098.105.001.21-.005.314-.02.17-.02.332-.076.475-.164.072-.045.14-.096.204-.152a.154.154 0 01.097-.04zM12.287 40.71c.003.26-.044.52-.139.763a1.655 1.655 0 01-.387.592 1.754 1.754 0 01-.608.388 2.296 2.296 0 01-1.564 0 1.777 1.777 0 01-.604-.39 1.74 1.74 0 01-.391-.597 2.167 2.167 0 010-1.527c.087-.223.22-.427.39-.6a1.78 1.78 0 01.605-.375 2.258 2.258 0 011.564 0c.228.088.435.22.607.39.17.17.301.37.388.59.095.245.143.505.14.767zm-.54 0a1.759 1.759 0 00-.098-.612 1.208 1.208 0 00-.71-.747 1.658 1.658 0 00-1.137 0 1.208 1.208 0 00-.712.747c-.13.4-.13.827 0 1.226a1.203 1.203 0 00.712.745c.367.13.77.13 1.137 0 .166-.064.314-.162.435-.287.123-.134.217-.29.275-.458.07-.198.102-.405.098-.613zM16.34 41.353l.055.138c.02-.05.038-.093.059-.138a1.32 1.32 0 01.067-.134l1.314-2.277c.026-.039.049-.063.075-.07a.322.322 0 01.108-.013h.388v3.703h-.46v-2.723-.115a1.083 1.083 0 010-.127l-1.322 2.308a.202.202 0 01-.078.084.216.216 0 01-.113.031h-.074c-.04 0-.08-.01-.113-.03a.2.2 0 01-.078-.085l-1.36-2.323v2.972h-.445V38.86h.388a.322.322 0 01.108.012.15.15 0 01.072.071l1.343 2.28a.806.806 0 01.067.131zM21.287 41.17v1.386h-.514V38.86h1.147c.216-.004.432.023.64.08.167.046.321.124.453.231.114.1.202.224.257.363.061.15.09.311.088.473.002.162-.03.323-.096.472a1.012 1.012 0 01-.277.37 1.269 1.269 0 01-.456.245c-.2.061-.41.09-.62.086l-.622-.01zm0-.398h.623c.135.002.27-.017.398-.056a.845.845 0 00.288-.16.653.653 0 00.175-.244.767.767 0 00.062-.311.678.678 0 00-.052-.302.708.708 0 00-.18-.252 1.033 1.033 0 00-.691-.199h-.623v1.525zM28.201 42.561h-.406a.18.18 0 01-.114-.034.227.227 0 01-.067-.086l-.35-.894h-1.756l-.363.894a.199.199 0 01-.064.084.18.18 0 01-.116.036h-.406l1.543-3.703h.535l1.564 3.703zm-2.546-1.374h1.45l-.612-1.508a2.61 2.61 0 01-.116-.348l-.059.194a1.85 1.85 0 01-.056.157l-.607 1.505zM30.423 38.876c.031.016.058.038.078.066l2.25 2.791v-.13-2.745h.46v3.703h-.257a.23.23 0 01-.105-.022.286.286 0 01-.082-.068l-2.249-2.79c.003.043.003.086 0 .128v2.753h-.46v-3.703h.273c.032-.001.063.005.092.017zM37.003 41.089v1.47h-.515v-1.47l-1.422-2.23h.46c.04-.003.08.009.11.032a.313.313 0 01.07.083l.89 1.438a1.541 1.541 0 01.157.328l.067-.159c.025-.058.054-.114.088-.169l.877-1.448a.373.373 0 01.067-.078.162.162 0 01.11-.037h.466l-1.425 2.24zM16.086 32.644c.224.027.45.05.68.069 3.47-1.48 6.406-3.9 8.44-6.96 2.035-3.06 3.077-6.624 2.998-10.246l-3.825-3.644a20.22 20.22 0 01-1.05 11.512c-1.465 3.67-3.973 6.88-7.243 9.27z" fill="#AFB1B8"/><path d="M14.72 32.475l.103.02c3.495-2.382 6.159-5.707 7.648-9.546a19.54 19.54 0 00.707-11.99L17.73 5.77a24.082 24.082 0 012.558 13.768c-.533 4.728-2.464 9.214-5.568 12.938zM33.196 19.786c-.925 3.98-3.173 7.568-6.41 10.234a20.218 20.218 0 01-3.045 2.082 18.188 18.188 0 007.08-3.813 17.085 17.085 0 004.585-6.4l-2.21-2.103z" fill="#AFB1B8"/><path d="M32.33 19.2l-3.146-2.997a18.475 18.475 0 01-2.953 9.67c-1.873 2.915-4.532 5.299-7.699 6.903h.016c.705 0 1.41-.04 2.111-.12a19.338 19.338 0 007.611-5.33 18.093 18.093 0 004.06-8.126zM15.176 3.58L11.423 0c-3.355 1.235-6.24 3.406-8.278 6.23C1.107 9.053.01 12.397 0 15.823c.013 3.787 1.35 7.46 3.801 10.441 2.451 2.98 5.875 5.097 9.731 6.015 3.442-3.995 5.457-8.932 5.753-14.093.295-5.161-1.144-10.277-4.11-14.606zM41 18.65c-.014-4.493-1.893-8.798-5.227-11.974-3.334-3.177-7.852-4.967-12.567-4.98-2.179-.002-4.34.381-6.371 1.13l22.977 21.89A16.072 16.072 0 0041 18.65z" fill="#AFB1B8"/></svg>
